src/icons/minecraft.svg

<svg viewBox="0 0 24 24" xmlns="http://www.w3.org/2000/svg">
  <path
    d="M4.33995 2.42397H19.66C19.9115 2.42384 20.1606 2.47328 20.3931 2.56946C20.6256 2.66564 20.8368 2.80667 21.0147 2.98451C21.1926 3.16235 21.3338 3.3735 21.4301 3.6059C21.5264 3.83831 21.576 4.08741 21.576 4.33897V19.661C21.576 19.9125 21.5264 20.1616 21.4301 20.394C21.3338 20.6264 21.1926 20.8376 21.0147 21.0154C20.8368 21.1933 20.6256 21.3343 20.3931 21.4305C20.1606 21.5267 19.9115 21.5761 19.66 21.576H4.33995C4.0883 21.5761 3.83909 21.5266 3.60657 21.4304C3.37406 21.3342 3.16278 21.193 2.98484 21.0151C2.8069 20.8371 2.66577 20.6259 2.56953 20.3934C2.47329 20.1608 2.42382 19.9116 2.42395 19.66V4.33997C2.42369 4.08824 2.47306 3.83892 2.56924 3.60629C2.66543 3.37365 2.80653 3.16227 2.98449 2.98422C3.16244 2.80617 3.37376 2.66495 3.60634 2.56865C3.83893 2.47234 4.08822 2.42384 4.33995 2.42397ZM6.25595 6.25297V10.084H10.086V12H8.16995V17.745H10.085V15.83H13.915V17.745H15.83V12H13.915V10.085H17.745V6.25497H13.915V10.085H10.085V6.25497L6.25595 6.25297Z"
    fill="#4CAF50"
  />
</svg>

<svg viewBox="0 0 24 24" xmlns="http://www.w3.org/2000/svg">
  <path
    d="M4.34 2.424h15.32a1.915 1.915 0 0 1 1.916 1.915v15.322a1.915 1.915 0 0 1-1.916 1.915H4.34a1.915 1.915 0 0 1-1.916-1.916V4.34A1.915 1.915 0 0 1 4.34 2.423m1.916 3.83v3.831h3.83V12H8.17v5.745h1.915V15.83h3.83v1.915h1.915V12h-1.915v-1.915h3.83v-3.83h-3.83v3.83h-3.83v-3.83z"
    style="fill: #4caf50; stroke-width: 0.95757"
  />
</svg>
